X: 18327
T: Humours Of Westmeath, The
R: slip jig
M: 9/8
K: Dmajor
d>DD FDF AFA|d>DD FDf gfe|d>DD FDF AGF|(G/A/)B.G ECE GFE||
d2g fdf ecA|d2g f/g/af gfe|d2g fdf ece|=cBc E2F GFE||

